icons/HSB-Collections/48x48/apps/preferences-desktop.svg

<svg xmlns="http://www.w3.org/2000/svg" width="48" height="48" version="1">
 <rect style="opacity:0.2" width="40" height="40" x="4" y="5" rx="12" ry="12"/>
 <rect style="fill:#1e88e5" width="40" height="40" x="4" y="4" rx="12" ry="12"/>
 <path style="opacity:0.1;fill:#ffffff" d="M 16,4 C 9.352,4 4,9.352 4,16 v 1 C 4,10.352 9.352,5 16,5 h 16 c 6.648,0 12,5.352 12,12 V 16 C 44,9.352 38.648,4 32,4 Z"/>
 <path style="fill:#253951" d="m 12,16 v 17.976562 c -0.03825,2.698344 4.03825,2.698344 4,0 V 16 Z m 20,8 v 9.976562 c -0.03825,2.698344 4.03825,2.698344 4,0 V 24 Z m -10,4 v 5.976562 c -0.03825,2.698344 4.03825,2.698344 4,0 V 28 Z"/>
 <path style="opacity:0.2" d="M 23.970703,12 C 22.866579,12.016137 21.984444,12.921878 22,14.023438 V 28 h 4 V 14.023438 C 26.015879,12.898983 25.097775,11.983529 23.970703,12 Z m 10,0 C 32.866579,12.016137 31.984444,12.921878 32,14.023438 V 24 h 4 V 14.023438 C 36.015879,12.898983 35.097775,11.983529 33.970703,12 Z"/>
 <path style="opacity:0.2" d="m 14,13 c -2.209139,0 -4,1.790861 -4,4 0,2.209139 1.790861,4 4,4 2.209139,0 4,-1.790861 4,-4 0,-2.209139 -1.790861,-4 -4,-4 z m 20,8 c -2.209139,0 -4,1.790861 -4,4 0,2.209139 1.790861,4 4,4 2.209139,0 4,-1.790861 4,-4 0,-2.209139 -1.790861,-4 -4,-4 z m -10,4 c -2.209139,0 -4,1.790861 -4,4 0,2.209139 1.790861,4 4,4 2.209139,0 4,-1.790861 4,-4 0,-2.209139 -1.790861,-4 -4,-4 z"/>
 <path style="fill:#ffffff" d="M 14 12 C 11.790861 12 10 13.790861 10 16 C 10 18.209139 11.790861 20 14 20 C 16.209139 20 18 18.209139 18 16 C 18 13.790861 16.209139 12 14 12 z M 34 20 C 31.790861 20 30 21.790861 30 24 C 30 26.209139 31.790861 28 34 28 C 36.209139 28 38 26.209139 38 24 C 38 21.790861 36.209139 20 34 20 z M 24 24 C 21.790861 24 20 25.790861 20 28 C 20 30.209139 21.790861 32 24 32 C 26.209139 32 28 30.209139 28 28 C 28 25.790861 26.209139 24 24 24 z"/>
 <path style="opacity:0.1" d="M 23.970703 12 C 22.866579 12.016137 21.984444 12.921878 22 14.023438 L 22 15.023438 C 21.984444 13.921878 22.866579 13.016137 23.970703 13 C 25.097775 12.983529 26.015879 13.898982 26 15.023438 L 26 14.023438 C 26.015879 12.898982 25.097775 11.983529 23.970703 12 z M 33.970703 12 C 32.866579 12.016137 31.984444 12.921878 32 14.023438 L 32 15.023438 C 31.984444 13.921878 32.866579 13.016137 33.970703 13 C 35.097775 12.983529 36.015879 13.898982 36 15.023438 L 36 14.023438 C 36.015879 12.898982 35.097775 11.983529 33.970703 12 z"/>
</svg>

<svg xmlns="http://www.w3.org/2000/svg" width="48" height="48" version="1">
 <rect style="opacity:0.2" width="40" height="40" x="4" y="5" rx="12" ry="12"/>
 <rect style="fill:#e4e4e4" width="40" height="40" x="4" y="4" rx="12" ry="12"/>
 <path style="opacity:0.2;fill:#ffffff" d="M 16,4 C 9.352,4 4,9.352 4,16 V 17 C 4,10.352 9.352,5 16,5 H 32 C 38.648,5 44,10.352 44,17 V 16 C 44,9.352 38.648,4 32,4 Z"/>
 <path style="fill:#3584e4" d="M 12,16 V 33.977 C 11.962,36.675 16.038,36.675 16,33.977 V 16 Z M 32,24 V 33.977 C 31.962,36.675 36.038,36.675 36,33.977 V 24 Z M 22,28 V 33.977 C 21.962,36.675 26.038,36.675 26,33.977 V 28 Z"/>
 <path style="opacity:0.2" d="M 23.971,12 C 22.867,12.016 21.984,12.922 22,14.023 V 28 H 26 V 14.023 C 26.016,12.899 25.098,11.984 23.971,12 Z M 33.971,12 C 32.867,12.016 31.984,12.922 32,14.023 V 24 H 36 V 14.023 C 36.016,12.899 35.098,11.984 33.971,12 Z"/>
 <path style="opacity:0.2" d="M 14,13 C 11.791,13 10,14.791 10,17 10,19.209 11.791,21 14,21 16.209,21 18,19.209 18,17 18,14.791 16.209,13 14,13 Z M 34,21 C 31.791,21 30,22.791 30,25 30,27.209 31.791,29 34,29 36.209,29 38,27.209 38,25 38,22.791 36.209,21 34,21 Z M 24,25 C 21.791,25 20,26.791 20,29 20,31.209 21.791,33 24,33 26.209,33 28,31.209 28,29 28,26.791 26.209,25 24,25 Z"/>
 <path style="fill:#ffffff" d="M 14,12 C 11.791,12 10,13.791 10,16 10,18.209 11.791,20 14,20 16.209,20 18,18.209 18,16 18,13.791 16.209,12 14,12 Z M 34,20 C 31.791,20 30,21.791 30,24 30,26.209 31.791,28 34,28 36.209,28 38,26.209 38,24 38,21.791 36.209,20 34,20 Z M 24,24 C 21.791,24 20,25.791 20,28 20,30.209 21.791,32 24,32 26.209,32 28,30.209 28,28 28,25.791 26.209,24 24,24 Z"/>
 <path style="opacity:0.1" d="M 23.971,12 C 22.867,12.016 21.984,12.922 22,14.023 V 15.023 C 21.984,13.922 22.867,13.016 23.971,13 25.098,12.984 26.016,13.899 26,15.023 V 14.023 C 26.016,12.899 25.098,11.984 23.971,12 Z M 33.971,12 C 32.867,12.016 31.984,12.922 32,14.023 V 15.023 C 31.984,13.922 32.867,13.016 33.971,13 35.098,12.984 36.016,13.899 36,15.023 V 14.023 C 36.016,12.899 35.098,11.984 33.971,12 Z"/>
</svg>
